X:10
T:Congress/ Within a Mile of Dublin/ Pigeon on the Gate
T:Congress Reel, The
M: 4/4
L: 1/8
K: Ador
|:eAAG A2Bd|eaaf gedg|eA A2 eA A2|BGGA Bdeg|
eAAG A2 (3Bcd|eaaf gedB|cBcd e=fed|(3cBA BG A2Bd:|
|:eaag a3 g|eaag (3ege dg|(3ege dg (3ege dg|eaaf gedg|
eaag a2ag|eaaf (3ege dB|c2cd e=fed|cABG A2Bd:|
T:Within a Mile of Dublin
K: Dmix
FG|:AD (3DDD FEFG|AD (3DDD cABG|AD (3DDD FEFG|ABcA G2 FG:|
Addc AGFG|Adde fdec|Addc AGFG|ABcA G2 FG|
Addc AGFG|Adde f2 fg|af (3gfe fdec|dcAF G2 FG|
T:Pigeon on the Gate
K: Edor
dc|BE ~E2 BEdE|BE ~E2 dBAF|D2 (3FED ADFE|D2 dA BAFA|
BE ~E2 BEdE|BE ~E2 dBAF|D2 FA dfec|dBAF E2:|
FA|Beed efed|(3Bcd ef gedB|Addc d3 B|A2 FA DAFA|
Beed efed|(3Bcd ef g2 fg|af (3gfe fd ec|dBAF E2:|

